X:1
T:Title
%%score { ( 1 3 ) | 2 }
L:1/8
Q:1/4=84
M:6/8
K:Eb
V:1 treble nm="Grand Piano"
V:3 treble 
V:2 bass 
V:1
 [GB][GB][GB] [GB][Ac][GB] | BAG A3 | [DA][DA][DA] [DA][DB][DA] | [FA][EG][DF] G3 | GGG BBB | %5
w: John~R.~Sweney * * * * *|||||
 AAA [Ec]3 | [Ad][Ad][Ad] [Ad][Ac][Ad] | [Ge]6 | [Ge]3 .[EG]3 | [EGB][B,EG][Ge] [Fd]3 | %10
w: |||||
 [Fd]3 [DF]2 [EG] | [FA][DF][DB] G3 | GGG BBB | AAA [Ec]3 | [Ad][Ad][Ad] [Ad][Ac][Ad] | %15
w: |||||
[M:7/4] [Ge]6 z2 z2 z4 |] %16
w: |
V:2
 [E,E][E,E][E,E] [E,E][E,E][E,E] | [B,G][B,F][B,=E] [B,F]3 | %2
 [B,,F,][B,,F,][B,,F,] [B,,F,][B,,F,][B,,F,] | [B,,B,][B,,B,][B,,B,] [E,B,E]3 | %4
 [E,B,E][E,B,E][E,B,E] [G,_DE][G,DE][G,DE] | [A,CE][A,CE][A,CE] [A,,A,]3 | %6
 [B,,F,][B,,F,][B,,F,] [B,,B,][B,,B,][B,,B,] | [E,B,]6 | [E,B,]E,E, E,E,E, | E,E,[E,B,] B,3 | %10
 B,B,B, [B,,B,][B,,B,][B,,B,] | [B,,B,][B,,B,][B,,B,] [E,B,E]3 | %12
 [E,B,E][E,B,E][E,B,E] [G,_DE][G,DE][G,DE] | [A,CE][A,CE][A,CE] [A,,A,]3 | %14
 [B,,F,][B,,F,][B,,F,] [B,,B,][B,,B,][B,,B,] |[M:7/4] [E,B,]6 z2 z2 z4 |] %16
V:3
 x6 | x6 | x6 | x6 | x6 | x6 | x6 | x6 | z B,B, B,B,[B,FA] | x6 | x6 | x6 | x6 | x6 | x6 | %15
[M:7/4] x14 |] %16

